X: 19
T: An Sean Duine Dóite
T: John Dunn's, The Burnt Old Man
C: after The Chieftains
R: jig
M: 6/8
L: 1/8
K: Gmaj
|: D | "G" GAB dBA         | GAB B3               | GAB "C"edB     | "D"  dBA "Am"A2 B/A/  |
       "G" GAB dBA         | BAB "Em"g3           | "D"fed "Am"edB | "D"  dBA A2          :|
|: B | "G" dBB gBB         | dBB d2 e             | "G"dBB gfg     | "Am" edB A2 B/A/      |
       "G" GAB dBA         | BAB "Em"g3           | "D"fed "Am"edB | "D"  dBA A2          :|


